X:9386
%9570
T:Liberty Bell
% Nottingham Music Database
S:Monty Python, via EF
M:6/8
K:Cmaj
P:A
G/2F/2|"C"E2E E^DE|"C"c2G G2E|"Dm"F2F F2G|"Dm"A3 A2F|"G"D2D D^CD|
"G7"B2A A2F|"C"E2E "G7"E2F|"C"G3 -"G7"G2F|"C"E2E E^DE|"C"c2G G2E|"D"^F2d d2d|
"D7"d3 d2c|"G"B2d d^cd|"D7"A2d d^cd|"G7"G2^F G2F|"G7"G3 G2:|
P:B
F|"C"E^DE A2G|"C"E3 C3|"F"A,3 "G7"D3|"C"C3 C2C|"G7"DEG B2A|"C"G3 c3|\
"G"B3 "D7"A3|"G7"G3 G2G|

%Error : Malformed note : expecting a-g or A-G
"F"A2A A
